X: 21211
T: BONNY PRINCE CHARLIE
%R: jig
B: "Edinburgh Repository of Music" v.2 p.121 #1
F: http://digital.nls.uk/special-collections-of-printed-music/pageturner.cfm?id=87776133
Z: 2015 John Chambers <jc:trillian.mit.edu>
M: 6/8
L: 1/8
K: D
[|\
F>ED D2B | AFd F>ED | FEE EFA | d>dc BAF |\
A>Bd e>dB | B>AF A>Bd | F>EF d>cB | A>DF {F}E2D |]
[|\
d<dA e<eA | f>ed d<AB | AFD D2d/e/ | fg/f/e/d/ (fed) |\
d2A e>fg | f>ed d>cB | A>BA A<DE | F<AF {F}E2D |]
